packages/appstore/src/assets/svgs/wallet/nganluong-dark.svg

<svg width="128" height="80" viewBox="0 0 128 80" fill="none" xmlns="http://www.w3.org/2000/svg">
<g opacity="0.997">
<path d="M19.0406 28C13.9458 28 9.81433 32.1315 9.81433 37.2263C9.82718 40.6996 11.6981 43.8999 14.7165 45.6178V42.1499C14.6771 40.8355 14.6957 39.4805 14.7082 38.5618C14.7127 38.2311 14.7165 37.9569 14.7165 37.7615V37.4297C16.5435 34.0913 20.0628 32.0341 23.8679 32.078C24.9746 32.0919 26.0664 32.3285 27.0789 32.7737C25.4627 29.8442 22.3865 28.0182 19.0406 28Z" fill="white"/>
<path d="M15.5945 37.9228C17.2835 34.8617 20.4784 32.9351 23.9752 32.8708C29.0829 32.9468 33.1855 37.1062 33.1908 42.2149C33.1908 45.5715 31.367 48.6637 28.4278 50.2853C28.8763 49.2738 29.1129 48.181 29.1236 47.0742C29.1696 43.2681 27.1113 39.7478 23.7719 37.9228H23.5792C23.4312 37.9228 23.1964 37.9184 22.8976 37.9128C21.9643 37.8953 20.4069 37.8661 18.9232 37.9228H15.5945Z" fill="white"/>
<path d="M14.3099 46.5927L14.1172 46.5071C10.9062 44.0453 9.07594 41.6691 9.03313 37.4627C8.99031 36.4255 9.09521 35.3873 9.34352 34.3801C6.53817 35.9824 4.86416 39.019 5.00865 42.2471C5.00544 44.6704 5.96661 46.9951 7.67915 48.7098C9.39169 50.4245 11.7154 51.3878 14.1386 51.3878C17.5509 51.3771 20.6998 49.55 22.4017 46.5927H14.3099Z" fill="white"/>
<path d="M23.3541 38.8748V42.3213C23.3931 43.5777 23.3752 44.8683 23.3627 45.774C23.358 46.1104 23.3541 46.3939 23.3541 46.6026V46.9665C21.5613 50.291 18.0763 52.3503 14.299 52.3182C13.1934 52.3075 12.1016 52.0742 11.088 51.6332C13.1002 55.283 17.3292 57.1069 21.3654 56.0655C25.4006 55.024 28.2188 51.3806 28.2134 47.2127C28.2241 43.7587 26.3639 40.5691 23.3541 38.8748Z" fill="white"/>
<path fill-rule="evenodd" clip-rule="evenodd" d="M55.6837 41.8122C55.1571 41.4644 54.5406 41.2899 53.8342 41.2899C52.7906 41.2899 51.9022 41.7138 51.1637 42.5593C50.4273 43.407 50.058 44.5844 50.058 46.0914C50.058 47.6895 50.4241 48.8347 51.1562 49.5272C51.8872 50.2197 52.7413 50.5655 53.7154 50.5655C54.4175 50.5655 54.9805 50.4541 55.4065 50.2294C55.8325 50.0057 56.1964 49.6632 56.4993 49.2029C56.5164 50.4424 56.418 51.3029 56.206 51.7846C55.8464 52.6034 55.0865 53.0123 53.9262 53.0123C53.192 53.0123 52.6547 52.8442 52.3121 52.5081C52.1302 52.3251 51.9985 52.0789 51.9172 51.7685L51.8744 51.5748H50.3363C50.4144 52.5006 50.7848 53.1792 51.4462 53.6138C52.1077 54.0483 52.9233 54.2656 53.893 54.2656C55.6366 54.2656 56.8215 53.6545 57.4498 52.4321C57.7527 51.837 57.9186 51.046 57.9496 50.0603L57.9539 49.7242V41.5339H56.5582V42.6685C56.2617 42.2939 55.9695 42.0081 55.6837 41.8122ZM51.9247 44.1242C52.3175 43.1266 53.0464 42.6278 54.1114 42.6278C54.8232 42.6278 55.4086 42.8965 55.8689 43.4349C56.3291 43.9732 56.5582 44.7995 56.5582 45.9159C56.5582 46.6555 56.4351 47.3031 56.1889 47.8575C55.7447 48.839 54.9805 49.3292 53.893 49.3292C53.1973 49.3292 52.6439 49.0648 52.2319 48.535C51.8198 48.0052 51.6143 47.2324 51.6143 46.2178C51.6143 45.3551 51.7181 44.6572 51.9247 44.1242Z" fill="white"/>
<path fill-rule="evenodd" clip-rule="evenodd" d="M122.73 41.8122C122.202 41.4644 121.587 41.2899 120.88 41.2899H120.879C119.837 41.2899 118.947 41.7138 118.21 42.5593C117.472 43.407 117.104 44.5844 117.104 46.0914C117.104 47.6895 117.469 48.8347 118.201 49.5272C118.932 50.2197 119.786 50.5655 120.761 50.5655C121.462 50.5655 122.025 50.4541 122.451 50.2294C122.877 50.0057 123.242 49.6632 123.545 49.2029C123.561 50.4424 123.464 51.3029 123.251 51.7846C122.892 52.6034 122.132 53.0123 120.972 53.0123C120.238 53.0123 119.7 52.8442 119.357 52.5081C119.175 52.3251 119.043 52.0789 118.963 51.7685L118.92 51.5748H117.381C117.459 52.5006 117.83 53.1792 118.491 53.6138C119.153 54.0483 119.968 54.2656 120.938 54.2656C122.682 54.2656 123.867 53.6545 124.495 52.4321C124.798 51.837 124.965 51.046 124.995 50.0603L125 49.7242V41.5339H123.604V42.6685C123.308 42.2939 123.015 42.0081 122.73 41.8122ZM118.971 44.1242C119.362 43.1266 120.091 42.6278 121.157 42.6278H121.156C121.869 42.6278 122.455 42.8965 122.914 43.4349C123.374 43.9732 123.604 44.7995 123.604 45.9159C123.604 46.6555 123.48 47.3031 123.234 47.8575C122.791 48.839 122.025 49.3292 120.938 49.3292C120.243 49.3292 119.69 49.0648 119.278 48.535C118.866 48.0052 118.66 47.2324 118.66 46.2178C118.66 45.3551 118.763 44.6572 118.971 44.1242Z" fill="white"/>
<path fill-rule="evenodd" clip-rule="evenodd" d="M105.12 42.3495C104.319 41.5768 103.338 41.1893 102.177 41.1893C100.883 41.1893 99.8512 41.6378 99.0827 42.5347C98.3153 43.4327 97.931 44.6369 97.931 46.1514C97.931 47.5632 98.296 48.6892 99.0238 49.5272C99.7527 50.3653 100.736 50.7838 101.976 50.7838C103.461 50.7838 104.558 50.3107 105.264 49.3635C105.97 48.4162 106.324 47.2164 106.324 45.7639C106.324 44.2612 105.923 43.1234 105.12 42.3495ZM100.118 43.5697C100.537 42.8633 101.211 42.5101 102.135 42.5101C103.178 42.5101 103.913 42.9243 104.339 43.7538C104.608 44.2815 104.743 44.9655 104.743 45.8057C104.743 46.7358 104.556 47.5814 104.183 48.3413C103.81 49.1012 103.122 49.4812 102.119 49.4812C101.205 49.4812 100.537 49.1612 100.118 48.5222C99.6971 47.8832 99.4862 47.0847 99.4862 46.1257C99.4862 45.1281 99.6971 44.2762 100.118 43.5697Z" fill="white"/>
<path fill-rule="evenodd" clip-rule="evenodd" d="M66.3464 41.8369C65.685 41.4333 64.8244 41.2321 63.7648 41.2321C62.8518 41.2321 62.0479 41.4494 61.3565 41.8839C60.664 42.3185 60.3033 43.0913 60.2755 44.2012H61.6883C61.744 43.7356 61.8649 43.3856 62.0501 43.1502C62.3808 42.7242 62.9406 42.5112 63.7316 42.5112C64.4155 42.5112 64.9411 42.6268 65.3082 42.859C65.6753 43.0924 65.8594 43.467 65.8594 43.9829C65.8594 44.2344 65.8252 44.4281 65.7577 44.563C65.64 44.8092 65.4077 44.9548 65.0599 44.9997L62.6463 45.3026C61.7996 45.4096 61.1157 45.6922 60.5944 46.1514C60.0732 46.6116 59.8131 47.2592 59.8131 48.0941C59.8131 48.8572 60.0774 49.4919 60.6073 49.9993C61.1371 50.5066 61.82 50.7603 62.6548 50.7603C63.3505 50.7603 63.9863 50.6115 64.5643 50.3139C65.1412 50.0174 65.5843 49.6664 65.8926 49.2629C65.9429 49.6225 66.0296 49.8997 66.1527 50.0956C66.3882 50.4659 66.7671 50.6511 67.2894 50.6511C67.5013 50.6511 67.6694 50.6425 67.7924 50.6254C67.9166 50.6083 68.0954 50.5665 68.3308 50.4991V49.3795C68.2356 49.3967 68.1457 49.4095 68.0622 49.4181C67.9776 49.4266 67.9027 49.4309 67.8342 49.4309C67.6276 49.4309 67.4917 49.3827 67.4275 49.2875C67.3632 49.1922 67.3311 49.0659 67.3311 48.9086V43.7207C67.3311 42.8687 67.0025 42.2404 66.3464 41.8369ZM65.6678 45.9587L65.8166 45.8731V47.0922C65.8166 48.0234 65.396 48.6934 64.5557 49.1023C64.057 49.3496 63.5411 49.4727 63.008 49.4727C62.5713 49.4727 62.1924 49.3463 61.8735 49.0938C61.5534 48.8411 61.394 48.4965 61.394 48.0598C61.394 47.4829 61.6262 47.0622 62.0918 46.7979C62.3273 46.6641 62.6634 46.5603 63.1012 46.4875L63.3281 46.4532L64.2453 46.3355C64.5236 46.3023 64.8105 46.2466 65.1016 46.1674C65.321 46.1086 65.5094 46.039 65.6678 45.9587Z" fill="white"/>
<path d="M90.4804 47.4294V41.4505H88.9338V47.5728C88.9338 48.3402 89.059 48.9535 89.3127 49.4138C89.7772 50.2722 90.6506 50.7003 91.935 50.7003C92.7592 50.7003 93.4602 50.4649 94.0371 49.9939C94.2715 49.8055 94.4738 49.5829 94.6462 49.326L94.7693 49.128L94.7521 50.4563H96.1821V41.4505H94.6676V45.8742C94.6676 46.754 94.5648 47.4454 94.3572 47.9506C93.9761 48.8925 93.2579 49.3635 92.2047 49.3635C91.4694 49.3635 90.9685 49.0938 90.6988 48.5554C90.5778 48.3124 90.5072 48.0116 90.4868 47.652L90.4804 47.4294Z" fill="white"/>
<path d="M46.315 48.1112L40.075 38.1035H38.0991V50.4563H39.6961V40.4583L46.0282 50.4563H47.9034V38.1035H46.315V48.1112Z" fill="white"/>
<path d="M76.7822 42.5861C76.3337 41.6945 75.47 41.2482 74.192 41.2482C73.6087 41.2482 73.0799 41.3638 72.6026 41.5928C72.1937 41.7898 71.8041 42.0959 71.4337 42.5112L71.2486 42.7284V41.4505H69.8111V50.4563H71.3246V45.7393C71.3246 45.1506 71.3631 44.6979 71.438 44.38C71.514 44.0642 71.6778 43.757 71.9304 43.4595C72.244 43.0902 72.609 42.843 73.0232 42.7199C73.2533 42.6471 73.5477 42.6107 73.9062 42.6107C74.6126 42.6107 75.1007 42.8911 75.3694 43.452C75.5085 43.7399 75.5888 44.106 75.6081 44.5512L75.6134 44.7803V50.4563H77.1526V44.6797C77.1526 43.771 77.0284 43.0731 76.7822 42.5861Z" fill="white"/>
<path d="M81.2648 48.9846V38.1035H79.5897V50.4563H87.5209V48.9846H81.2648Z" fill="white"/>
<path d="M115.094 42.5861C114.645 41.6945 113.782 41.2482 112.504 41.2482C111.92 41.2482 111.392 41.3638 110.914 41.5928C110.506 41.7898 110.116 42.0959 109.744 42.5112L109.56 42.7284V41.4505H108.123V50.4563H109.636V45.7393C109.636 45.1506 109.675 44.6979 109.75 44.38C109.825 44.0642 109.989 43.757 110.242 43.4595C110.556 43.0902 110.921 42.843 111.335 42.7199C111.565 42.6471 111.859 42.6107 112.218 42.6107C112.924 42.6107 113.412 42.8911 113.681 43.452C113.82 43.7399 113.9 44.106 113.92 44.5512L113.925 44.7803V50.4563H115.464V44.6797C115.464 43.771 115.34 43.0731 115.094 42.5861Z" fill="white"/>
</g>
</svg>

<svg width="128" height="80" fill="none" xmlns="http://www.w3.org/2000/svg"><g opacity=".997" fill="#fff"><path d="M19.04 28a9.227 9.227 0 0 0-9.226 9.226 9.698 9.698 0 0 0 4.902 8.392V42.15c-.039-1.314-.02-2.67-.008-3.588.005-.33.008-.605.008-.8v-.332a10.296 10.296 0 0 1 9.152-5.352 8.233 8.233 0 0 1 3.21.696A9.238 9.238 0 0 0 19.042 28z"/><path d="M15.595 37.923a9.777 9.777 0 0 1 8.38-5.052 9.355 9.355 0 0 1 9.216 9.344 9.217 9.217 0 0 1-4.763 8.07 8.115 8.115 0 0 0 .696-3.21 10.286 10.286 0 0 0-5.352-9.152h-.193c-.148 0-.383-.005-.681-.01-.934-.018-2.491-.047-3.975.01h-3.328zM14.31 46.593l-.193-.086c-3.21-2.462-5.041-4.838-5.084-9.044a10.987 10.987 0 0 1 .31-3.083 8.616 8.616 0 0 0-4.334 7.867 9.129 9.129 0 0 0 9.13 9.14 9.569 9.569 0 0 0 8.263-4.794H14.31z"/><path d="M23.354 38.875v3.446c.04 1.257.021 2.547.009 3.453-.005.336-.009.62-.009.829v.364a10.189 10.189 0 0 1-9.055 5.351 8.249 8.249 0 0 1-3.211-.685 9.13 9.13 0 0 0 17.125-4.42 9.536 9.536 0 0 0-4.859-8.338z"/><path fill-rule="evenodd" clip-rule="evenodd" d="M55.684 41.812c-.527-.348-1.143-.522-1.85-.522-1.043 0-1.932.424-2.67 1.27-.737.847-1.106 2.024-1.106 3.531 0 1.599.366 2.744 1.098 3.436.731.693 1.585 1.038 2.56 1.038.701 0 1.264-.11 1.69-.336.427-.223.79-.566 1.093-1.026.017 1.24-.081 2.1-.293 2.582-.36.818-1.12 1.227-2.28 1.227-.734 0-1.271-.168-1.614-.504-.182-.183-.313-.43-.395-.74l-.043-.193h-1.538c.078.926.449 1.604 1.11 2.039.662.434 1.477.652 2.447.652 1.744 0 2.928-.611 3.557-1.834.303-.595.469-1.386.5-2.372l.004-.336v-8.19h-1.396v1.135c-.296-.375-.589-.66-.874-.857zm-3.76 2.312c.394-.997 1.122-1.496 2.187-1.496a2.21 2.21 0 0 1 1.758.807c.46.538.69 1.364.69 2.48 0 .74-.124 1.388-.37 1.943-.444.981-1.209 1.471-2.296 1.471-.696 0-1.25-.264-1.661-.794-.412-.53-.618-1.303-.618-2.317 0-.863.104-1.56.31-2.094zM122.73 41.812c-.528-.348-1.143-.522-1.85-.522h-.001c-1.042 0-1.932.424-2.669 1.27-.738.847-1.106 2.024-1.106 3.531 0 1.599.365 2.744 1.097 3.436.731.693 1.585 1.038 2.56 1.038.701 0 1.264-.11 1.69-.336.426-.223.791-.566 1.094-1.026.016 1.24-.081 2.1-.294 2.582-.359.818-1.119 1.227-2.279 1.227-.734 0-1.272-.168-1.615-.504-.182-.183-.314-.43-.394-.74l-.043-.193h-1.539c.078.926.449 1.604 1.11 2.039.662.434 1.477.652 2.447.652 1.744 0 2.929-.611 3.557-1.834.303-.595.47-1.386.5-2.372l.005-.336v-8.19h-1.396v1.135c-.296-.375-.589-.66-.874-.857zm-3.759 2.312c.391-.997 1.12-1.496 2.186-1.496h-.001c.713 0 1.299.269 1.758.807.46.538.69 1.364.69 2.48 0 .74-.124 1.388-.37 1.943-.443.981-1.209 1.471-2.296 1.471-.695 0-1.248-.264-1.66-.794-.412-.53-.618-1.303-.618-2.317 0-.863.103-1.56.311-2.094zM105.12 42.35c-.801-.773-1.782-1.16-2.943-1.16-1.294 0-2.326.448-3.094 1.345-.768.898-1.152 2.102-1.152 3.616 0 1.412.365 2.538 1.093 3.376.729.838 1.712 1.257 2.952 1.257 1.485 0 2.582-.473 3.288-1.42.706-.948 1.06-2.148 1.06-3.6 0-1.503-.401-2.64-1.204-3.415zm-5.002 1.22c.419-.707 1.093-1.06 2.017-1.06 1.043 0 1.778.414 2.204 1.244.269.528.404 1.212.404 2.052 0 .93-.187 1.775-.56 2.535-.373.76-1.061 1.14-2.064 1.14-.914 0-1.582-.32-2.001-.959-.42-.639-.632-1.437-.632-2.396 0-.998.211-1.85.632-2.556zM66.346 41.837c-.661-.404-1.522-.605-2.581-.605-.913 0-1.717.217-2.409.652-.692.434-1.053 1.207-1.08 2.317h1.412c.056-.465.177-.815.362-1.05.33-.427.89-.64 1.682-.64.683 0 1.21.116 1.576.348.367.233.551.608.551 1.124 0 .251-.034.445-.101.58-.118.246-.35.392-.698.437l-2.414.303c-.846.107-1.53.39-2.052.848-.52.46-.78 1.108-.78 1.943 0 .763.263 1.398.793 1.905.53.508 1.213.761 2.048.761.695 0 1.331-.148 1.91-.446.576-.297 1.02-.648 1.328-1.051.05.36.137.637.26.833.235.37.614.555 1.136.555.212 0 .38-.009.503-.026.125-.017.303-.059.539-.126v-1.12c-.095.018-.185.03-.269.04-.084.008-.16.012-.228.012-.206 0-.342-.048-.407-.143a.667.667 0 0 1-.096-.38v-5.187c0-.852-.329-1.48-.985-1.884zm-.678 4.122.149-.086v1.22c0 .93-.421 1.6-1.261 2.01a3.443 3.443 0 0 1-1.548.37c-.437 0-.816-.127-1.135-.38-.32-.252-.479-.597-.479-1.033 0-.577.232-.998.698-1.262.235-.134.571-.238 1.01-.31l.226-.035.917-.117c.279-.034.566-.09.857-.169.219-.058.407-.128.566-.208z"/><path d="M90.48 47.43v-5.98h-1.546v6.123c0 .767.125 1.38.379 1.84.464.86 1.338 1.287 2.622 1.287.824 0 1.525-.235 2.102-.706.234-.188.437-.411.61-.668l.122-.198-.017 1.328h1.43V41.45h-1.514v4.424c0 .88-.103 1.571-.31 2.077-.382.941-1.1 1.413-2.153 1.413-.736 0-1.236-.27-1.506-.809-.121-.243-.192-.543-.212-.903l-.007-.223zM46.315 48.111l-6.24-10.008h-1.976v12.353h1.597v-9.998l6.332 9.998h1.875V38.103h-1.588v10.008zM76.782 42.586c-.448-.892-1.312-1.338-2.59-1.338-.583 0-1.112.116-1.59.345-.408.197-.798.503-1.168.918l-.185.217V41.45H69.81v9.006h1.514V45.74c0-.588.038-1.041.113-1.359.076-.316.24-.623.492-.92.314-.37.679-.617 1.093-.74.23-.073.525-.11.883-.11.707 0 1.195.281 1.463.842.14.288.22.654.24 1.1l.004.228v5.676h1.54V44.68c0-.909-.125-1.607-.37-2.094zM81.265 48.985V38.103H79.59v12.353h7.93v-1.471h-6.255zM115.094 42.586c-.449-.892-1.312-1.338-2.59-1.338-.584 0-1.112.116-1.59.345-.408.197-.798.503-1.17.918l-.184.217V41.45h-1.437v9.006h1.513V45.74c0-.588.039-1.041.114-1.359.075-.316.239-.623.492-.92.314-.37.679-.617 1.093-.74.23-.073.524-.11.883-.11.706 0 1.194.281 1.463.842.139.288.219.654.239 1.1l.005.228v5.676h1.539V44.68c0-.909-.124-1.607-.37-2.094z"/></g></svg>
